dist/svg/url.svg

<svg width="16" height="16" viewBox="0 0 16 16" fill="rgb(34, 34, 34)" xmlns="http://www.w3.org/2000/svg"><title>URL</title><path d="M16 3.94991C16 4.94591 15.582 5.84491 14.912 6.47991L14.91 6.48191L11.272 9.96891C10.945 10.2809 10.559 10.5339 10.132 10.7089L10.108 10.7179L9.97699 10.7649C9.85299 10.8119 9.69999 10.8569 9.54299 10.8919L9.51899 10.8969C9.41199 10.9209 9.27799 10.9429 9.14199 10.9569L9.12599 10.9579C9.09299 10.9619 9.06099 10.9649 9.02799 10.9679C8.93299 10.9759 8.82099 10.9809 8.70899 10.9809C8.66099 10.9809 8.61399 10.9799 8.56699 10.9789H8.57399C8.45299 10.9769 8.33299 10.9639 8.21299 10.9499C8.19599 10.9479 8.17899 10.9479 8.16199 10.9459L7.90399 10.9109C7.22099 10.7699 6.62799 10.4509 6.15699 10.0049L6.15899 10.0069L5.64799 9.51791C5.62699 9.49791 5.60699 9.47791 5.58599 9.45691C5.51299 9.38391 5.45699 9.29891 5.39199 9.21991L6.42899 8.22591C6.49499 8.31591 6.56499 8.39591 6.63999 8.46991L7.15099 8.95891C7.55999 9.32491 8.10199 9.54791 8.69699 9.54791C9.30999 9.54791 9.86799 9.30991 10.284 8.92191L10.283 8.92291L13.92 5.43691C14.316 5.06491 14.564 4.53791 14.565 3.95391C14.565 3.95291 14.565 3.95191 14.565 3.95191C14.565 3.41191 14.345 2.92291 13.991 2.56991C13.979 2.55791 13.967 2.54591 13.955 2.53491L13.444 2.04591C13.038 1.67191 12.494 1.44291 11.897 1.44291C11.281 1.44291 10.723 1.68591 10.312 2.08191L8.30699 4.00391H6.22199L9.31999 1.03491C9.98899 0.396906 10.897 0.00390625 11.897 0.00390625C12.878 0.00390625 13.771 0.381906 14.438 1.00091L14.436 0.998906L14.947 1.48791C15.598 2.10991 16.002 2.98491 16.004 3.95391L16 3.94991ZM7.69699 11.9999L5.69099 13.9219C5.28099 14.3169 4.72199 14.5599 4.10599 14.5599C3.50899 14.5599 2.96499 14.3309 2.55699 13.9559L2.55899 13.9569L2.04799 13.4679C1.67199 13.1149 1.43699 12.6139 1.43699 12.0589C1.43699 12.0549 1.43699 12.0509 1.43699 12.0469V12.0479C1.43799 11.4629 1.68599 10.9369 2.08099 10.5659L2.08199 10.5649L5.71899 7.07891C6.06199 6.75391 6.50599 6.53391 6.99999 6.47091L7.01099 6.46991C7.10799 6.45491 7.21999 6.44591 7.33399 6.44591C7.92099 6.44591 8.45399 6.67291 8.85099 7.04391L8.84999 7.04291L9.36099 7.53191C9.37299 7.54291 9.38499 7.55491 9.39699 7.56691C9.45699 7.63091 9.51399 7.69891 9.56599 7.77191L9.56999 7.77791L10.607 6.78391C10.523 6.67291 10.44 6.57591 10.352 6.48291L10.354 6.48491L9.84299 5.99591C9.42799 5.60691 8.91699 5.31491 8.34999 5.15991L8.32499 5.15391C8.01799 5.06291 7.66399 5.01091 7.29899 5.01091C6.30299 5.01091 5.39699 5.39991 4.72499 6.03291L4.72699 6.03091L1.08899 9.51791C0.416993 10.1539 -0.00100708 11.0519 -0.00100708 12.0479C-0.00100708 12.0499 -0.00100708 12.0529 -0.00100708 12.0559C-0.00100708 12.9929 0.378993 13.8409 0.993993 14.4539C1.01399 14.4749 1.03499 14.4949 1.05599 14.5149L1.56699 15.0039C2.23099 15.6209 3.12499 15.9989 4.10599 15.9989C5.10599 15.9989 6.01399 15.6059 6.68499 14.9669L6.68399 14.9679L9.78199 11.9989H7.69699V11.9999Z" fill="rgb(34, 34, 34)" fill-opacity="1.00"/></svg>

<!-- Generated by Trend Micro Style Portal -->
<svg version="1.1" xmlns="http://www.w3.org/2000/svg" width="16" height="16" viewBox="0 0 16 16">
  <title>url</title>
  <path fill="rgb(34,34,34)" d="M16 3.95c0 0 0 0 0 0.001 0 0.996-0.418 1.894-1.088 2.529l-0.002 0.002-3.638 3.487c-0.327 0.312-0.713 0.565-1.14 0.74l-0.024 0.009-0.131 0.047c-0.124 0.047-0.277 0.092-0.434 0.127l-0.024 0.005c-0.107 0.024-0.241 0.046-0.377 0.060l-0.016 0.001c-0.033 0.004-0.065 0.007-0.098 0.010-0.095 0.008-0.207 0.013-0.319 0.013-0.048 0-0.095-0.001-0.142-0.002l0.007 0c-0.121-0.002-0.241-0.015-0.361-0.029-0.017-0.002-0.034-0.002-0.051-0.004l-0.258-0.035c-0.683-0.141-1.276-0.46-1.747-0.906l0.002 0.002-0.511-0.489c-0.021-0.020-0.041-0.040-0.062-0.061-0.073-0.073-0.129-0.158-0.194-0.237l1.037-0.994c0.066 0.090 0.136 0.17 0.211 0.244l0 0 0.511 0.489c0.409 0.366 0.951 0.589 1.546 0.589 0.613 0 1.171-0.238 1.587-0.626l-0.001 0.001 3.637-3.486c0.396-0.372 0.644-0.899 0.645-1.483v-0c0-0.001 0-0.002 0-0.002 0-0.54-0.22-1.029-0.574-1.382l-0-0c-0.012-0.012-0.024-0.024-0.036-0.035l-0.511-0.489c-0.406-0.374-0.95-0.603-1.547-0.603-0.616 0-1.174 0.243-1.585 0.639l-2.005 1.922h-2.085l3.098-2.969c0.669-0.638 1.577-1.031 2.577-1.031 0.981 0 1.874 0.378 2.541 0.997l-0.002-0.002 0.511 0.489c0.651 0.622 1.055 1.497 1.057 2.466v0zM7.697 12l-2.006 1.922c-0.41 0.395-0.969 0.638-1.585 0.638-0.597 0-1.141-0.229-1.549-0.604l0.002 0.001-0.511-0.489c-0.376-0.353-0.611-0.854-0.611-1.409 0-0.004 0-0.008 0-0.012v0.001c0.001-0.585 0.249-1.111 0.644-1.482l0.001-0.001 3.637-3.486c0.343-0.325 0.787-0.545 1.281-0.608l0.011-0.001c0.097-0.015 0.209-0.024 0.323-0.024 0.587 0 1.12 0.227 1.517 0.598l-0.001-0.001 0.511 0.489c0.012 0.011 0.024 0.023 0.036 0.035 0.060 0.064 0.117 0.132 0.169 0.205l0.004 0.006 1.037-0.994c-0.084-0.111-0.167-0.208-0.255-0.301l0.002 0.002-0.511-0.489c-0.415-0.389-0.926-0.681-1.493-0.836l-0.025-0.006c-0.307-0.091-0.661-0.143-1.026-0.143-0.996 0-1.902 0.389-2.574 1.022l0.002-0.002-3.638 3.487c-0.672 0.636-1.090 1.534-1.090 2.53 0 0 0 0 0 0v-0c0 0.002-0 0.005-0 0.008 0 0.937 0.38 1.785 0.995 2.398l0 0c0.020 0.021 0.041 0.041 0.062 0.061l0.511 0.489c0.664 0.617 1.558 0.995 2.539 0.995 1 0 1.908-0.393 2.579-1.032l-0.001 0.001 3.098-2.969h-2.085z"></path>
</svg>
